icons/svg/emoticon-cool.svg

﻿<?xml version="1.0" encoding="utf-8"?>
<!DOCTYPE svg PUBLIC "-//W3C//DTD SVG 1.1//EN" "http://www.w3.org/Graphics/SVG/1.1/DTD/svg11.dtd">
<svg xmlns="http://www.w3.org/2000/svg" xmlns:xlink="http://www.w3.org/1999/xlink" version="1.1" baseProfile="full" width="24" height="24" viewBox="0 0 24.00 24.00" enable-background="new 0 0 24.00 24.00" xml:space="preserve">
	<path fill="#000000" fill-opacity="1" stroke-width="0.2" stroke-linejoin="round" d="M 19,10C 19,11.3807 16.8807,12.5 15.5,12.5C 14.1193,12.5 12.75,11.3807 12.75,10L 11.25,10C 11.25,11.3807 9.88071,12.5 8.5,12.5C 7.11929,12.5 5,11.3807 5,10L 4.25204,10C 4.08751,10.6392 4.00001,11.3094 4.00001,12C 4.00001,16.4183 7.58173,20 12,20C 16.4183,20 20,16.4183 20,12C 20,11.3094 19.9125,10.6392 19.748,10L 19,10 Z M 12,3.99999C 9.03887,3.99999 6.45349,5.60879 5.07026,8L 18.9298,8C 17.5465,5.60879 14.9612,3.99999 12,3.99999 Z M 22,12C 22,17.5228 17.5228,22 12,22C 6.47715,22 2.00001,17.5228 2.00001,12C 2.00001,6.47715 6.47715,2 12,2C 17.5228,2 22,6.47715 22,12 Z M 12,17.2302C 10.2476,17.2302 8.70571,16.509 7.81291,15.4173L 9.23025,14C 9.68255,14.7225 10.7523,15.2302 12,15.2302C 13.2477,15.2302 14.3175,14.7225 14.7698,14L 16.1871,15.4173C 15.2943,16.509 13.7524,17.2302 12,17.2302 Z "/>
</svg>

<svg xmlns="http://www.w3.org/2000/svg" version="1.1" baseProfile="full" width="24" height="24" viewBox="0 0 24.00 24.00" xml:space="preserve"><path fill="#000" fill-opacity="1" stroke-width=".2" stroke-linejoin="round" d="M19 10c0 1.38-2.12 2.5-3.5 2.5s-2.75-1.12-2.75-2.5h-1.5c0 1.38-1.37 2.5-2.75 2.5S5 11.38 5 10h-.748C4.088 10.64 4 11.31 4 12c0 4.418 3.582 8 8 8s8-3.582 8-8c0-.69-.087-1.36-.252-2H19zm-7-6C9.04 4 6.453 5.61 5.07 8h13.86C17.547 5.61 14.96 4 12 4zm10 8c0 5.523-4.477 10-10 10S2 17.523 2 12 6.477 2 12 2s10 4.477 10 10zm-10 5.23c-1.752 0-3.294-.72-4.187-1.813L9.23 14c.453.723 1.522 1.23 2.77 1.23s2.318-.508 2.77-1.23l1.417 1.417C15.294 16.51 13.752 17.23 12 17.23z"/></svg>
